icons/mermaid.svg

<svg width="16" height="16" viewBox="0 0 16 16" fill="none" xmlns="http://www.w3.org/2000/svg">
<path d="M13.9945 3.0062C12.6979 2.94452 11.4175 3.34425 10.3393 4.14724C9.26121 4.95024 8.44169 6.11461 7.99996 7.47101C7.55824 6.11461 6.73871 4.95024 5.66059 4.14724C4.58246 3.34425 3.30197 2.94452 2.00538 3.0062C1.96184 4.1588 2.18321 5.30473 2.6486 6.33586C3.11399 7.367 3.80804 8.24934 4.66529 8.89965C5.10509 9.2354 5.46451 9.68539 5.71236 10.2106C5.96021 10.7357 6.08899 11.3202 6.08753 11.9132V14H9.91277V11.9132C9.91123 11.3202 10.0399 10.7358 10.2877 10.2106C10.5355 9.68543 10.8949 9.23542 11.3346 8.89965C12.1921 8.24959 12.8863 7.3673 13.3518 6.3361C13.8172 5.3049 14.0384 4.15885 13.9945 3.0062Z" fill="#E23063"/>
<path d="M4.99997 11.9941C5.00184 11.6336 4.91788 11.2781 4.7554 10.9585C4.59292 10.639 4.35685 10.365 4.06771 10.1605C3.67477 9.88522 3.30775 9.57281 2.97144 9.22737C2.60778 8.85326 2.28228 8.44201 2 8V11C2 12.6569 3.34313 14 4.99997 14V14V11.9941Z" fill="#E23063"/>
<path d="M11 11.9941C10.9982 11.6336 11.0821 11.2781 11.2446 10.9585C11.4071 10.639 11.6432 10.365 11.9323 10.1605C12.3252 9.88522 12.6923 9.57281 13.0286 9.22737C13.3922 8.85326 13.7177 8.44201 14 8V11C14 12.6569 12.6569 14 11 14V14V11.9941Z" fill="#E23063"/>
</svg>

<svg xmlns="http://www.w3.org/2000/svg" width="16" height="16" fill="none" viewBox="0 0 16 16"><path fill="#E23063" d="M13.995 3.006c-1.297-.061-2.577.338-3.656 1.141C9.261 4.95 8.442 6.115 8 7.471c-.442-1.356-1.261-2.52-2.34-3.324s-2.358-1.202-3.655-1.14a7.4 7.4 0 0 0 .644 3.329A6.6 6.6 0 0 0 4.665 8.9c.44.335.8.785 1.047 1.31.248.526.377 1.11.376 1.703V14h3.825v-2.087a4 4 0 0 1 .375-1.702A3.55 3.55 0 0 1 11.335 8.9a6.6 6.6 0 0 0 2.017-2.564 7.4 7.4 0 0 0 .643-3.33"/><path fill="#E23063" d="M5 11.994a2.26 2.26 0 0 0-.245-1.035 2.2 2.2 0 0 0-.687-.798A7.7 7.7 0 0 1 2 8v3a3 3 0 0 0 3 3zm6 0a2.25 2.25 0 0 1 .245-1.035c.162-.32.398-.594.687-.798A7.7 7.7 0 0 0 14 8v3a3 3 0 0 1-3 3z"/></svg>
